X:1964
T:Fiona's New House
O:england
M:4/4
L:1/8
Q:150
C:Stephen P McNally
K:AMix
dcdA (3dcB Ac|deAe fddf|gefd (3edc Ad|efed cAAc|
dcdA (3dcB Ac|deAe fddf|gefd (3edc Ad|efgc (3edc d2|
adcd (3edc d2|(3edc de Aefd|adcd (3edc d2|efed cAAd|
adcd (3edc d2|(3edc de Aefd|adcd (3edc d2|efgc (3edc d2|
(3edc Ae- edcA|(3edc Ac defd|(3edc Ae- edcA|efed cAAd|
(3edc Ae- edcA|(3edc Ac defd|(3edc Ae- edcA|efgc (3edc d2|


